svg/building/temple_of_heaven_line.svg

<?xml version="1.0" encoding="UTF-8"?>
<svg width="24px" height="24px" viewBox="0 0 24 24" version="1.1" xmlns="http://www.w3.org/2000/svg" xmlns:xlink="http://www.w3.org/1999/xlink">
    <title>palace_2_line</title>
    <g id="页面-1" stroke="none" stroke-width="1" fill="none" fill-rule="evenodd">
        <g id="Building" transform="translate(-96.000000, -96.000000)">
            <g id="palace_2_line" transform="translate(96.000000, 96.000000)">
                 <path d="M24,0 L24,24 L0,24 L0,0 L24,0 Z M12.5934901,23.257841 L12.5819402,23.2595131 L12.5108777,23.2950439 L12.4918791,23.2987469 L12.4918791,23.2987469 L12.4767152,23.2950439 L12.4056548,23.2595131 C12.3958229,23.2563662 12.3870493,23.2590235 12.3821421,23.2649074 L12.3780323,23.275831 L12.360941,23.7031097 L12.3658947,23.7234994 L12.3769048,23.7357139 L12.4804777,23.8096931 L12.4953491,23.8136134 L12.4953491,23.8136134 L12.5071152,23.8096931 L12.6106902,23.7357139 L12.6232938,23.7196733 L12.6232938,23.7196733 L12.6266527,23.7031097 L12.609561,23.275831 C12.6075724,23.2657013 12.6010112,23.2592993 12.5934901,23.257841 L12.5934901,23.257841 Z M12.8583906,23.1452862 L12.8445485,23.1473072 L12.6598443,23.2396597 L12.6498822,23.2499052 L12.6498822,23.2499052 L12.6471943,23.2611114 L12.6650943,23.6906389 L12.6699349,23.7034178 L12.6699349,23.7034178 L12.678386,23.7104931 L12.8793402,23.8032389 C12.8914285,23.8068999 12.9022333,23.8029875 12.9078286,23.7952264 L12.9118235,23.7811639 L12.8776777,23.1665331 C12.8752882,23.1545897 12.8674102,23.1470016 12.8583906,23.1452862 L12.8583906,23.1452862 Z M12.1430473,23.1473072 C12.1332178,23.1423925 12.1221763,23.1452606 12.1156365,23.1525954 L12.1099173,23.1665331 L12.0757714,23.7811639 C12.0751323,23.7926639 12.0828099,23.8018602 12.0926481,23.8045676 L12.108256,23.8032389 L12.3092106,23.7104931 L12.3186497,23.7024347 L12.3186497,23.7024347 L12.3225043,23.6906389 L12.340401,23.2611114 L12.337245,23.2485176 L12.337245,23.2485176 L12.3277531,23.2396597 L12.1430473,23.1473072 Z" id="MingCute" fill-rule="nonzero"></path>
                <path d="M12,2 C12.5523,2 13,2.44772 13,3 C13,4.37246429 14.0085714,5.14644388 15.1305612,5.69951531 L15.4696656,5.85918707 L15.4696656,5.85918707 L15.8102041,6.0078698 L15.8102041,6.0078698 L17.0307,6.50498877 L17.0307,6.50498877 L17.3251705,6.630044 L17.3251705,6.630044 L17.6195371,6.76780169 C18.3485208,7.13050227 19,7.63960652 19,8.5 C19,8.99411 18.8022,9.3809 18.53,9.67972 L18.9792303,9.80800843 L18.9792303,9.80800843 L19.2996107,9.90806026 L19.2996107,9.90806026 L19.6291047,10.0215866 C20.7906813,10.4443625 22,11.143925 22,12.4268 C22,13.6246 20.8665,14.3521 19.885,14.7726 L19.1444,19.2161 C19.0079,20.0351 18.5352,21.008 17.4569,21.3668 L17.3278597,21.408356 L17.3278597,21.408356 L17.0450313,21.4906945 C16.9950641,21.5042808 16.9436557,21.5177817 16.8907666,21.5311718 L16.5553448,21.6099795 C16.4963737,21.6228247 16.4358424,21.6355082 16.3737112,21.6480047 L15.9814069,21.7205353 L15.9814069,21.7205353 L15.5487982,21.7873553 C15.3220999,21.8191342 15.0795727,21.848314 14.8201441,21.874208 L14.2784342,21.9214115 C14.1842874,21.9284808 14.0881833,21.9351341 13.9900822,21.9413461 L13.3771927,21.9731178 L13.3771927,21.9731178 L12.7144674,21.993076 C12.4850412,21.9976242 12.2469913,22 12,22 C11.753007,22 11.5149555,21.9976242 11.285528,21.993076 L10.6227993,21.9731178 L10.6227993,21.9731178 L10.0099074,21.9413461 C9.9118059,21.9351341 9.8157015,21.9284808 9.72155448,21.9214115 L9.17984319,21.874208 C8.92041407,21.848314 8.67788645,21.8191342 8.45118793,21.7873553 L8.01857863,21.7205353 L8.01857863,21.7205353 L7.6262738,21.6480047 L7.6262738,21.6480047 L7.27236697,21.5709843 C7.21647642,21.5578412 7.16210635,21.5445619 7.10921704,21.5311718 L6.8093326,21.4497051 C6.71508234,21.422242 6.62643739,21.3945391 6.54308,21.3668 C5.46485,21.008 4.99206,20.0351 4.85555,19.2161 L4.11498,14.7726 C3.13347,14.3521 2,13.6246 2,12.4268 C2,11.143925 3.20931875,10.4443625 4.37087844,10.0215866 L4.70036716,9.90806026 L4.70036716,9.90806026 L5.02074128,9.80800843 L5.02074128,9.80800843 L5.46996,9.67972 L5.46996,9.67972 C5.19777,9.3809 5,8.99411 5,8.5 C5,7.63960652 5.65146645,7.13050227 6.38046071,6.76780169 L6.67483279,6.630044 L6.67483279,6.630044 L6.96931182,6.50498877 L6.96931182,6.50498877 L8.02068804,6.07879823 L8.02068804,6.07879823 L8.3599201,5.93476047 C8.41671244,5.90999575 8.47355702,5.88482034 8.53034194,5.85918707 L8.86944023,5.69951531 C9.93531461,5.17409745 10.8988579,4.44930997 10.9925475,3.2014282 L11,3 C11,2.44772 11.4477,2 12,2 Z M17.7473,15.4332 C16.1327,15.7932 14.1381,16 12,16 C10.0401025,16 8.20074285,15.8262306 6.66410167,15.5199773 L6.25266,15.4332 L6.82834,18.8873 C6.86321,19.0965 6.94637,19.3932 7.17455,19.4691 L7.38255334,19.5335372 L7.38255334,19.5335372 L7.63014052,19.5998929 C7.67484198,19.6110167 7.72129646,19.6221487 7.76955582,19.6332534 L8.0811854,19.6992656 C8.13687169,19.7101173 8.19446657,19.72087 8.25402189,19.7314879 L8.63529383,19.793291 L8.63529383,19.793291 L9.0661051,19.8501405 C9.44644724,19.8949739 9.88098544,19.9328576 10.3762011,19.9593176 L11,19.9853 L11,18 C11,17.4477 11.4477,17 12,17 C12.51285,17 12.9355092,17.386027 12.9932725,17.8833761 L13,18 L13,19.9853 L13.6237933,19.9593176 C14.119005,19.9328576 14.5535409,19.8949739 14.9338834,19.8501405 L15.3646965,19.793291 L15.3646965,19.793291 L15.7459732,19.7314879 C15.8055296,19.72087 15.8631256,19.7101173 15.9188132,19.6992656 L16.2304525,19.6332534 L16.2304525,19.6332534 L16.4987785,19.5665826 L16.4987785,19.5665826 L16.7262803,19.5009714 C16.7609335,19.4902199 16.7939895,19.4795842 16.8255,19.4691 C17.0250875,19.4026875 17.1137359,19.167225 17.1561598,18.9692494 L17.7473,15.4332 Z M12,5.82806 C11.3478,6.62069 10.5154,7.11034 9.94721,7.39443 C9.08547,7.8253 8.17082,8.13403 7.30488,8.55294 C7.70088,8.72999 8.31907,8.89112 9.14313,9.01029 C9.63533,9.08148 10.0004,9.50354 10,10.0009 C9.99957,10.4982 9.63375,10.9196 9.14142,10.9899 C7.41695,11.2363 6.00257,11.5504 5.04302,11.9154 C4.55878,12.0996 4.25311,12.2737 4.08563,12.4134 C4.05346684,12.4401895 4.15685562,12.5110025 4.32872862,12.6014004 L4.56355631,12.7177145 L4.56355631,12.7177145 L4.83837484,12.8434456 L4.83837484,12.8434456 L5.26924859,13.0291706 L5.26924859,13.0291706 L5.74334416,13.2221752 L5.74334416,13.2221752 L5.91094,13.2849 L5.91094,13.2849 C7.42741,13.7184 9.58054,14 12,14 C14.2682812,14 16.3024219,13.7525 17.7973865,13.3643695 L18.0891,13.2849 C18.7057,13.1086 19.4646,12.9 19.9407,12.436 C19.6654,12.1917 19.2959,12.0443 18.957,11.9154 C17.9974,11.5504 16.583,11.2363 14.8586,10.9899 C14.3663,10.9196 14.0004,10.4982 14,10.0009 C13.9996,9.50354 14.3647,9.08148 14.8569,9.01029 C15.6809,8.89112 16.2991,8.72999 16.6951,8.55293 C15.8292,8.13403 14.9145,7.8253 14.0528,7.39443 C13.4846,7.11034 12.6522,6.62069 12,5.82806 Z" id="形状" fill="#09244B"></path>
            </g>
        </g>
    </g>
</svg>

<svg xmlns="http://www.w3.org/2000/svg" width="24" height="24"><g fill="none" fill-rule="evenodd"><path d="M24 0v24H0V0h24ZM12.593 23.258l-.011.002-.071.035-.02.004-.014-.004-.071-.035c-.01-.004-.019-.001-.024.005l-.004.01-.017.428.005.02.01.013.104.074.015.004.012-.004.104-.074.012-.016.004-.017-.017-.427c-.002-.01-.009-.017-.017-.018Zm.265-.113-.013.002-.185.093-.01.01-.003.011.018.43.005.012.008.007.201.093c.012.004.023 0 .029-.008l.004-.014-.034-.614c-.003-.012-.01-.02-.02-.022Zm-.715.002a.023.023 0 0 0-.027.006l-.006.014-.034.614c0 .012.007.02.017.024l.015-.002.201-.093.01-.008.004-.011.017-.43-.003-.012-.01-.01-.184-.092Z"/><path fill="#09244B" d="M12 2a1 1 0 0 1 1 1c0 1.372 1.009 2.146 2.13 2.7l.34.16.34.148 1.22.497.295.125.295.138C18.349 7.13 19 7.64 19 8.5c0 .494-.198.88-.47 1.18l.45.128.32.1.33.114c1.16.422 2.37 1.122 2.37 2.405 0 1.198-1.134 1.925-2.115 2.346l-.74 4.443c-.137.82-.61 1.792-1.688 2.15l-.13.042-.282.083-.154.04-.336.079-.181.038-.393.073-.432.066c-.227.032-.47.061-.729.087l-.542.047-.288.02-.613.032-.663.02a36.055 36.055 0 0 1-1.428 0l-.663-.02-.613-.032a24.686 24.686 0 0 1-.288-.02l-.542-.047c-.26-.026-.502-.055-.729-.087l-.432-.066-.393-.073-.354-.077a9.88 9.88 0 0 1-.163-.04l-.3-.081a7.397 7.397 0 0 1-.266-.083c-1.078-.359-1.55-1.332-1.687-2.15l-.741-4.444C3.133 14.353 2 13.625 2 12.427c0-1.283 1.21-1.983 2.37-2.405l.33-.114.32-.1.45-.128A1.71 1.71 0 0 1 5 8.5c0-.86.651-1.37 1.38-1.732l.295-.138.294-.125 1.052-.426.339-.144.17-.076.34-.16c1.065-.525 2.029-1.25 2.123-2.498L11 3a1 1 0 0 1 1-1Zm5.747 13.433c-1.614.36-3.609.567-5.747.567-1.96 0-3.8-.174-5.336-.48l-.411-.087.575 3.454c.035.21.118.506.347.582l.208.065.247.066.14.033.311.066c.056.011.113.022.173.032l.381.062.431.057c.38.045.815.083 1.31.11l.624.025V18a1 1 0 0 1 1.993-.117L13 18v1.985l.624-.026c.495-.026.93-.064 1.31-.109l.43-.057.382-.062c.06-.01.117-.02.173-.032l.311-.066.269-.066.227-.066a5.12 5.12 0 0 0 .1-.032c.2-.066.288-.302.33-.5l.591-3.536ZM12 5.828c-.652.793-1.485 1.282-2.053 1.566-.862.431-1.776.74-2.642 1.159.396.177 1.014.338 1.838.457a1 1 0 0 1-.002 1.98c-1.724.246-3.138.56-4.098.925-.484.185-.79.359-.957.498-.033.027.07.098.243.188l.235.117.274.125.431.186.474.193.168.063C7.427 13.718 9.58 14 12 14c2.268 0 4.302-.248 5.797-.636l.292-.08c.617-.175 1.376-.384 1.852-.848-.276-.244-.645-.392-.984-.52-.96-.366-2.374-.68-4.098-.926a1 1 0 0 1-.002-1.98c.824-.119 1.442-.28 1.838-.457-.866-.419-1.78-.728-2.642-1.159-.568-.284-1.4-.773-2.053-1.566Z"/></g></svg>
